packages/katcn/src/icons/svg/feed.svg

<svg width="24" height="25" viewBox="0 0 24 25" fill="none" xmlns="http://www.w3.org/2000/svg">
<path fill-rule="evenodd" clip-rule="evenodd" d="M5.36364 4.31201C4.63099 4.31201 4 4.95335 4 5.64534V7.88893C4 8.62647 4.59229 9.24052 5.40276 9.31201H7.63636C8.36901 9.31201 9 8.67068 9 7.97868V5.64534C9 4.90202 8.40932 4.31201 7.72727 4.31201H5.36364ZM2 5.64534C2 3.82452 3.55083 2.31201 5.36364 2.31201H7.72727C9.59068 2.31201 11 3.87584 11 5.64534V7.97868C11 9.7995 9.44917 11.312 7.63636 11.312H5.36364C5.34017 11.312 5.31671 11.3112 5.2933 11.3095C3.57427 11.1883 2 9.83427 2 7.88893V5.64534ZM16.3636 4.31201C15.631 4.31201 15 4.95335 15 5.64534V7.97868C15 8.67068 15.631 9.31201 16.3636 9.31201H18.6364C19.369 9.31201 20 8.67068 20 7.97868V5.64534C20 4.90202 19.4093 4.31201 18.7273 4.31201H16.3636ZM13 5.64534C13 3.82452 14.5508 2.31201 16.3636 2.31201H18.7273C20.5907 2.31201 22 3.87585 22 5.64534V7.97868C22 9.7995 20.4492 11.312 18.6364 11.312H16.3636C14.5508 11.312 13 9.7995 13 7.97868V5.64534ZM5.36364 15.312C4.63099 15.312 4 15.9533 4 16.6453V18.9787C4 19.6051 4.56786 20.2386 5.40268 20.312H7.63636C8.36901 20.312 9 19.6707 9 18.9787V16.6453C9 15.902 8.40932 15.312 7.72727 15.312H5.36364ZM2 16.6453C2 14.8245 3.55083 13.312 5.36364 13.312H7.72727C9.59068 13.312 11 14.8758 11 16.6453V18.9787C11 20.7995 9.44917 22.312 7.63636 22.312H5.36364C5.34017 22.312 5.31671 22.3112 5.2933 22.3095C3.59974 22.1901 2 20.8573 2 18.9787V16.6453ZM16.3636 15.312C15.631 15.312 15 15.9533 15 16.6453V18.9787C15 19.6707 15.631 20.312 16.3636 20.312H18.6364C19.369 20.312 20 19.6707 20 18.9787V16.6453C20 15.902 19.4093 15.312 18.7273 15.312H16.3636ZM13 16.6453C13 14.8245 14.5508 13.312 16.3636 13.312H18.7273C20.5907 13.312 22 14.8758 22 16.6453V18.9787C22 20.7995 20.4492 22.312 18.6364 22.312H16.3636C14.5508 22.312 13 20.7995 13 18.9787V16.6453Z" fill="black"/>
</svg>

<svg xmlns="http://www.w3.org/2000/svg" fill="none" viewBox="0 0 24 25"><path fill="#000" fill-rule="evenodd" d="M5.364 4.312C4.63 4.312 4 4.953 4 5.645V7.89c0 .737.592 1.352 1.403 1.423h2.233C8.37 9.312 9 8.671 9 7.979V5.645c0-.743-.59-1.333-1.273-1.333zM2 5.645c0-1.82 1.55-3.333 3.364-3.333h2.363C9.591 2.312 11 3.876 11 5.645V7.98c0 1.82-1.55 3.333-3.364 3.333H5.364q-.036 0-.07-.002C3.573 11.188 2 9.834 2 7.889zm14.364-1.333c-.733 0-1.364.641-1.364 1.333V7.98c0 .692.631 1.333 1.364 1.333h2.272c.733 0 1.364-.641 1.364-1.333V5.645c0-.743-.59-1.333-1.273-1.333zM13 5.645c0-1.82 1.55-3.333 3.364-3.333h2.363C20.591 2.312 22 3.876 22 5.645V7.98c0 1.82-1.55 3.333-3.364 3.333h-2.272C14.55 11.312 13 9.8 13 7.979zm-7.636 9.667c-.733 0-1.364.641-1.364 1.333v2.334c0 .626.568 1.26 1.403 1.333h2.233c.733 0 1.364-.641 1.364-1.333v-2.334c0-.743-.59-1.333-1.273-1.333zM2 16.645c0-1.82 1.55-3.333 3.364-3.333h2.363c1.864 0 3.273 1.564 3.273 3.333v2.334c0 1.82-1.55 3.333-3.364 3.333H5.364q-.036 0-.07-.003C3.6 22.19 2 20.858 2 18.98zm14.364-1.333c-.733 0-1.364.641-1.364 1.333v2.334c0 .692.631 1.333 1.364 1.333h2.272c.733 0 1.364-.641 1.364-1.333v-2.334c0-.743-.59-1.333-1.273-1.333zM13 16.645c0-1.82 1.55-3.333 3.364-3.333h2.363c1.864 0 3.273 1.564 3.273 3.333v2.334c0 1.82-1.55 3.333-3.364 3.333h-2.272c-1.813 0-3.364-1.513-3.364-3.333z" clip-rule="evenodd"/></svg>
